Vector/symbolic/apps/preferences-desktop-wallpaper-symbolic.svg

<svg xmlns="http://www.w3.org/2000/svg" width="16" height="16"><path d="M7 3v5H3v2h10V3z" opacity=".3" fill="#555555"/><path d="M6 3L3 7h3z" fill="#555555"/><path d="M2 0C0 0 0 2 0 2v9s0 2 2 2h12s2 0 2-2V2s0-2-2-2zm0 2h12v9H2zm1 13v1h10v-1c0-1-1-1-1-1H4s-1 0-1 1z" fill="#555555"/></svg>

<svg xmlns="http://www.w3.org/2000/svg" width="16" height="16" version="1.1">
 <path style="opacity:.35;fill:#444444" d="M 7,3 V 8 H 3 V 10 H 13 V 3 Z"/>
 <path style="fill:#444444" d="M 6,3 3,7 H 6 Z"/>
 <path style="fill:#444444" d="M 2,0 C 0,0 0,2 0,2 V 11 C 0,11 0,13 2,13 H 14 C 14,13 16,13 16,11 V 2 C 16,2 16,0 14,0 Z M 2,2 H 14 V 11 H 2 Z M 3,15 V 16 H 13 V 15 C 13,14 12,14 12,14 H 4 C 4,14 3,14 3,15 Z"/>
</svg>
